;FLAVOR:UltiGCode
;TIME:4887      
;MATERIAL:8783      
;MATERIAL2:0         

;Layer count: 148
;LAYER:0
M107
G0 F9000 X87.590 Y86.751 Z0.300
;TYPE:SKIRT
G1 F1200 X88.992 Y85.339 E0.23878
G1 X90.537 Y83.939 E0.48897
G1 X92.164 Y82.623 E0.74008
G1 X93.860 Y81.402 E0.99086
G1 X95.704 Y80.220 E1.25370
G1 X97.445 Y79.245 E1.49315
G1 X99.316 Y78.323 E1.74345
G1 X101.471 Y77.406 E2.02449
G1 X102.518 Y77.128 E2.15448
G1 X102.988 Y77.000 E2.21293
G1 X104.337 Y76.970 E2.37485
G1 X104.824 Y76.950 E2.43334
G1 X106.178 Y77.251 E2.59979
G1 X106.620 Y77.354 E2.65425
G1 X107.680 Y77.857 E2.79505
G1 X108.037 Y78.026 E2.84244
G1 X108.863 Y78.639 E2.96588
G1 X109.149 Y78.849 E3.00846
G1 X109.969 Y79.707 E3.15088
G1 X110.485 Y80.438 E3.25825
G1 X110.902 Y81.056 E3.34771
G1 X111.200 Y81.402 E3.40251
G1 X111.537 Y81.710 E3.45729
G1 X111.919 Y81.984 E3.51371
G1 X112.318 Y82.203 E3.56832
G1 X112.751 Y82.379 E3.62441
G1 X113.191 Y82.499 E3.67914
G1 X113.656 Y82.568 E3.73555
G1 X114.102 Y82.582 E3.78910
G1 X114.568 Y82.540 E3.84524
G1 X115.023 Y82.445 E3.90102
G1 X115.459 Y82.297 E3.95627
G1 X115.870 Y82.102 E4.01086
G1 X116.266 Y81.852 E4.06706
G1 X116.620 Y81.565 E4.12175
G1 X116.942 Y81.233 E4.17725
G1 X117.222 Y80.866 E4.23264
G1 X117.567 Y80.285 E4.31373
G1 X117.885 Y79.742 E4.38924
G1 X118.435 Y79.009 E4.49921
G1 X119.020 Y78.417 E4.59908
G1 X119.243 Y78.194 E4.63693
G1 X120.212 Y77.482 E4.78122
G1 X121.128 Y77.020 E4.90433
G1 X121.466 Y76.846 E4.94995
G1 X122.979 Y76.430 E5.13825
G1 X124.739 Y76.342 E5.34971
G1 X126.398 Y76.660 E5.55241
G1 X128.585 Y77.437 E5.83093
G1 X130.566 Y78.271 E6.08885
G1 X132.497 Y79.216 E6.34683
G1 X134.371 Y80.271 E6.60490
G1 X136.094 Y81.376 E6.85053
G1 X137.836 Y82.630 E7.10810
G1 X139.585 Y84.050 E7.37844
G1 X141.173 Y85.506 E7.63698
G1 X142.603 Y86.973 E7.88281
G1 X144.080 Y88.666 E8.15242
G1 X145.398 Y90.370 E8.41093
G1 X146.555 Y92.060 E8.65670
G1 X147.668 Y93.894 E8.91414
G1 X148.727 Y95.882 E9.18444
G1 X149.623 Y97.843 E9.44316
G1 X150.366 Y99.750 E9.68875
G1 X150.998 Y101.675 E9.93188
G1 X151.066 Y101.877 E9.95746
G1 X151.617 Y103.970 E10.21718
G1 X152.044 Y106.078 E10.47527
G1 X152.321 Y108.005 E10.70889
G1 X152.350 Y108.205 E10.73314
G1 X152.525 Y110.244 E10.97872
G1 X152.590 Y112.285 E11.22377
G1 X152.597 Y112.498 E11.24934
G1 X152.523 Y114.848 E11.53148
G1 X152.303 Y117.190 E11.81376
G1 X151.953 Y119.403 E12.08262
G1 X151.451 Y121.696 E12.36429
G1 X150.803 Y123.958 E12.64665
G1 X150.053 Y126.071 E12.91571
G1 X149.923 Y126.434 E12.96198
G1 X149.359 Y127.478 E13.10437
G1 X149.134 Y127.898 E13.16155
G1 X148.254 Y128.870 E13.31889
G1 X147.925 Y129.240 E13.37831
G1 X146.797 Y130.006 E13.54193
G1 X146.394 Y130.279 E13.60034
G1 X145.130 Y130.747 E13.76208
G1 X144.682 Y130.913 E13.81941
G1 X143.384 Y131.067 E13.97626
G1 X142.983 Y131.118 E14.02477
G1 X141.873 Y131.021 E14.15848
G1 X141.526 Y130.982 E14.20038
G1 X140.601 Y130.735 E14.31527
G1 X139.910 Y130.530 E14.40176
G1 X139.450 Y130.449 E14.45781
G1 X138.950 Y130.420 E14.51791
G1 X138.511 Y130.449 E14.57071
G1 X138.086 Y130.528 E14.62258
G1 X137.644 Y130.662 E14.67801
G1 X137.196 Y130.859 E14.73673
G1 X136.836 Y131.074 E14.78705
G1 X136.437 Y131.378 E14.84724
G1 X136.139 Y131.669 E14.89723
G1 X135.842 Y132.033 E14.95360
G1 X135.592 Y132.425 E15.00939
G1 X135.382 Y132.862 E15.06757
G1 X135.251 Y133.251 E15.11683
G1 X135.141 Y133.757 E15.17897
G1 X135.103 Y134.193 E15.23149
G1 X135.116 Y134.655 E15.28695
G1 X135.179 Y135.081 E15.33862
G1 X135.297 Y135.528 E15.39410
G1 X135.594 Y136.275 E15.49057
G1 X136.045 Y137.594 E15.65784
G1 X136.222 Y139.305 E15.86426
G1 X136.036 Y140.891 E16.05588
G1 X135.580 Y142.276 E16.23086
G1 X134.955 Y143.424 E16.38771
G1 X134.227 Y144.357 E16.52972
G1 X133.448 Y145.096 E16.65857
G1 X132.729 Y145.617 E16.76513
G1 X132.093 Y145.986 E16.85336
G1 X130.334 Y146.823 E17.08712
G1 X128.411 Y147.622 E17.33701
G1 X126.469 Y148.305 E17.58404
G1 X124.730 Y148.660 E17.79702
G1 X122.948 Y148.568 E18.01115
G1 X121.464 Y148.160 E18.19583
G1 X120.222 Y147.544 E18.36220
G1 X119.209 Y146.800 E18.51302
G1 X118.414 Y145.995 E18.64879
G1 X117.876 Y145.281 E18.75607
G1 X117.209 Y144.161 E18.91250
G1 X116.936 Y143.808 E18.96605
G1 X116.636 Y143.502 E19.01747
G1 X116.241 Y143.180 E19.07862
G1 X115.870 Y142.947 E19.13120
G1 X115.452 Y142.749 E19.18670
G1 X115.015 Y142.602 E19.24203
G1 X114.566 Y142.508 E19.29707
G1 X114.105 Y142.467 E19.35261
G1 X113.653 Y142.481 E19.40688
G1 X113.233 Y142.543 E19.45783
G1 X112.742 Y142.673 E19.51878
G1 X112.334 Y142.838 E19.57159
G1 X111.924 Y143.063 E19.62771
G1 X111.551 Y143.329 E19.68269
G1 X111.236 Y143.614 E19.73366
G1 X110.925 Y143.967 E19.79012
G1 X110.463 Y144.638 E19.88788
G1 X109.830 Y145.452 E20.01161
G1 X109.546 Y145.821 E20.06749
G1 X108.536 Y146.628 E20.22263
G1 X108.176 Y146.917 E20.27803
G1 X106.945 Y147.496 E20.44127
G1 X106.514 Y147.697 E20.49834
G1 X105.260 Y147.957 E20.65202
G1 X104.847 Y148.049 E20.70279
G1 X103.581 Y148.024 E20.85474
G1 X103.227 Y148.016 E20.89723
G1 X102.218 Y147.821 E21.02055
G1 X101.423 Y147.563 E21.12085
G1 X99.502 Y146.758 E21.37079
G1 X97.679 Y145.873 E21.61397
G1 X95.993 Y144.940 E21.84520
G1 X95.646 Y144.724 E21.89425
G1 X94.433 Y143.793 E22.07774
G1 X93.334 Y142.438 E22.28710
G1 X92.541 Y140.788 E22.50678
G1 X92.275 Y139.490 E22.66578
G1 X92.162 Y138.985 E22.72788
G1 X92.212 Y137.643 E22.88903
G1 X92.231 Y137.206 E22.94152
G1 X92.542 Y136.005 E23.09039
G1 X92.778 Y135.232 E23.18738
G1 X92.855 Y134.806 E23.23933
G1 X92.887 Y134.308 E23.29921
G1 X92.859 Y133.862 E23.35283
G1 X92.762 Y133.334 E23.41726
G1 X92.618 Y132.889 E23.47338
G1 X92.424 Y132.476 E23.52814
G1 X92.140 Y132.021 E23.59250
G1 X91.860 Y131.681 E23.64535
G1 X91.476 Y131.314 E23.70910
G1 X91.087 Y131.030 E23.76689
G1 X90.696 Y130.813 E23.82055
G1 X90.231 Y130.624 E23.88079
G1 X89.731 Y130.490 E23.94290
G1 X89.299 Y130.435 E23.99516
G1 X88.749 Y130.428 E24.06117
G1 X87.960 Y130.525 E24.15656
G1 X87.002 Y130.586 E24.27175
G1 X86.517 Y130.626 E24.33015
G1 X84.949 Y130.351 E24.52118
G1 X84.454 Y130.201 E24.58325
G1 X83.103 Y129.616 E24.75992
G1 X81.800 Y128.668 E24.95328
G1 X80.815 Y127.586 E25.12886
G1 X80.206 Y126.628 E25.26509
G1 X79.801 Y125.739 E25.38232
G1 X79.100 Y123.691 E25.64207
G1 X78.533 Y121.679 E25.89292
G1 X78.079 Y119.639 E26.14371
G1 X77.739 Y117.576 E26.39461
G1 X77.526 Y115.595 E26.63370
G1 X77.406 Y113.416 E26.89557
G1 X77.412 Y111.320 E27.14709
G1 X77.536 Y109.232 E27.39809
G1 X77.775 Y107.155 E27.64898
G1 X78.130 Y105.096 E27.89971
G1 X78.575 Y103.156 E28.13855
G1 X79.177 Y101.053 E28.40105
G1 X79.871 Y99.077 E28.65237
G1 X80.631 Y97.237 E28.89126
G1 X81.575 Y95.265 E29.15362
G1 X82.538 Y93.518 E29.39300
G1 X83.694 Y91.662 E29.65538
G1 X84.903 Y89.951 E29.90679
G1 X86.202 Y88.314 E30.15756
G1 X87.590 Y86.751 E30.40840
G0 F9000 X87.882 Y87.025
G1 F1200 X89.269 Y85.629 E30.64455
G1 X90.798 Y84.243 E30.89219
G1 X92.407 Y82.941 E31.14057
G1 X94.084 Y81.732 E31.38865
G1 X95.910 Y80.563 E31.64883
G1 X97.632 Y79.599 E31.88565
G1 X99.483 Y78.686 E32.13332
G1 X101.602 Y77.785 E32.40963
G1 X102.644 Y77.508 E32.53901
G1 X103.045 Y77.399 E32.58888
G1 X104.361 Y77.369 E32.74684
G1 X104.788 Y77.352 E32.79812
G1 X106.090 Y77.641 E32.95816
G1 X106.487 Y77.734 E33.00709
G1 X107.831 Y78.371 E33.18557
G1 X108.641 Y78.972 E33.30660
G1 X108.641 Y78.973 E33.30672
G1 X108.884 Y79.150 E33.34280
G1 X109.659 Y79.962 E33.47750
G1 X110.156 Y80.665 E33.58081
G1 X110.583 Y81.299 E33.67254
G1 X110.912 Y81.680 E33.73294
G1 X111.289 Y82.024 E33.79419
G1 X111.704 Y82.321 E33.85543
G1 X112.152 Y82.568 E33.91682
G1 X112.618 Y82.758 E33.97720
G1 X113.111 Y82.892 E34.03851
G1 X113.610 Y82.966 E34.09905
G1 X114.126 Y82.982 E34.16100
G1 X114.627 Y82.937 E34.22136
G1 X115.125 Y82.833 E34.28241
G1 X115.612 Y82.668 E34.34411
G1 X116.061 Y82.454 E34.40380
G1 X116.501 Y82.177 E34.46619
G1 X116.887 Y81.864 E34.52582
G1 X117.244 Y81.497 E34.58726
G1 X117.553 Y81.093 E34.64830
G1 X117.911 Y80.489 E34.73255
G1 X118.219 Y79.964 E34.80559
G1 X118.739 Y79.270 E34.90966
G1 X119.303 Y78.699 E35.00597
G1 X119.504 Y78.499 E35.03999
G1 X120.422 Y77.824 E35.17673
G1 X121.308 Y77.377 E35.29581
G1 X121.612 Y77.221 E35.33682
G1 X123.043 Y76.828 E35.51489
G1 X124.711 Y76.744 E35.71531
G1 X126.293 Y77.047 E35.90860
G1 X128.440 Y77.810 E36.18202
G1 X130.400 Y78.635 E36.43721
G1 X132.311 Y79.571 E36.69256
G1 X134.164 Y80.614 E36.94772
G1 X135.870 Y81.706 E37.19079
G1 X137.592 Y82.948 E37.44557
G1 X139.323 Y84.353 E37.71310
G1 X140.895 Y85.793 E37.96893
G1 X142.308 Y87.244 E38.21197
G1 X143.771 Y88.920 E38.47893
G1 X145.074 Y90.606 E38.73463
G1 X146.219 Y92.277 E38.97771
G1 X147.320 Y94.091 E39.23235
G1 X148.368 Y96.060 E39.50001
G1 X149.255 Y97.999 E39.75588
G1 X149.989 Y99.885 E39.99874
G1 X150.619 Y101.801 E40.24077
G1 X150.682 Y101.992 E40.26490
G1 X151.227 Y104.060 E40.52153
G1 X151.649 Y106.146 E40.77692
G1 X151.925 Y108.062 E41.00922
G1 X151.952 Y108.250 E41.03201
G1 X152.126 Y110.268 E41.27507
G1 X152.190 Y112.298 E41.51879
G1 X152.197 Y112.497 E41.54268
G1 X152.123 Y114.823 E41.82194
G1 X151.906 Y117.140 E42.10120
G1 X151.560 Y119.329 E42.36714
G1 X151.063 Y121.598 E42.64588
G1 X150.422 Y123.836 E42.92524
G1 X149.676 Y125.937 E43.19278
G1 X149.557 Y126.271 E43.23532
G1 X149.007 Y127.288 E43.37407
G1 X148.805 Y127.665 E43.42539
G1 X147.935 Y128.626 E43.58095
G1 X147.659 Y128.937 E43.63085
G1 X146.573 Y129.675 E43.78841
G1 X146.210 Y129.920 E43.84096
G1 X144.991 Y130.372 E43.99698
G1 X144.588 Y130.521 E44.04854
G1 X143.337 Y130.670 E44.19972
G1 X143.337 Y130.669 E44.19984
G1 X142.975 Y130.716 E44.24364
G1 X141.913 Y130.622 E44.37158
G1 X141.601 Y130.588 E44.40924
G1 X140.709 Y130.349 E44.52006
G1 X140.008 Y130.141 E44.60780
G1 X139.499 Y130.051 E44.66983
G1 X138.948 Y130.019 E44.73606
G1 X138.454 Y130.052 E44.79547
G1 X138.001 Y130.136 E44.85076
G1 X137.502 Y130.288 E44.91336
G1 X137.008 Y130.505 E44.97810
G1 X136.614 Y130.740 E45.03315
G1 X136.173 Y131.076 E45.09968
G1 X135.844 Y131.398 E45.15493
G1 X135.514 Y131.801 E45.21743
G1 X135.245 Y132.225 E45.27769
G1 X135.011 Y132.710 E45.34231
G1 X134.864 Y133.149 E45.39786
G1 X134.746 Y133.691 E45.46443
G1 X134.702 Y134.179 E45.52322
G1 X134.717 Y134.691 E45.58469
G1 X134.785 Y135.155 E45.64096
G1 X134.918 Y135.657 E45.70328
G1 X135.219 Y136.414 E45.80104
G1 X135.652 Y137.681 E45.96171
G1 X135.819 Y139.303 E46.15738
G1 X135.644 Y140.804 E46.33872
G1 X135.212 Y142.116 E46.50448
G1 X134.619 Y143.204 E46.65317
G1 X133.930 Y144.087 E46.78757
G1 X133.191 Y144.788 E46.90980
G1 X132.510 Y145.281 E47.01069
G1 X131.907 Y145.632 E47.09441
G1 X130.171 Y146.457 E47.32506
G1 X128.268 Y147.248 E47.57236
G1 X126.362 Y147.919 E47.81484
G1 X124.700 Y148.258 E48.01839
G1 X123.012 Y148.171 E48.22122
G1 X121.607 Y147.785 E48.39607
G1 X120.431 Y147.201 E48.55363
G1 X119.472 Y146.496 E48.69646
G1 X118.717 Y145.733 E48.82527
G1 X118.209 Y145.058 E48.92664
G1 X117.545 Y143.944 E49.08227
G1 X117.232 Y143.538 E49.14379
G1 X116.911 Y143.210 E49.19886
G1 X116.477 Y142.857 E49.26599
G1 X116.055 Y142.592 E49.32579
G1 X115.603 Y142.378 E49.38580
G1 X115.114 Y142.214 E49.44769
G1 X114.632 Y142.113 E49.50679
G1 X114.120 Y142.068 E49.56846
G1 X113.608 Y142.083 E49.62993
G1 X113.154 Y142.150 E49.68500
G1 X112.615 Y142.293 E49.75192
G1 X112.163 Y142.475 E49.81039
G1 X111.711 Y142.723 E49.87226
G1 X111.305 Y143.012 E49.93206
G1 X110.945 Y143.339 E49.99042
G1 X110.615 Y143.713 E50.05028
G1 X110.141 Y144.402 E50.15063
G1 X109.514 Y145.207 E50.27308
G1 X109.259 Y145.539 E50.32331
G1 X108.286 Y146.315 E50.47266
G1 X107.963 Y146.576 E50.52249
G1 X106.775 Y147.134 E50.67999
G1 X106.387 Y147.315 E50.73137
G1 X105.194 Y147.562 E50.87756
G1 X104.807 Y147.648 E50.92514
G1 X103.590 Y147.624 E51.07121
G1 X103.270 Y147.617 E51.10962
G1 X102.318 Y147.432 E51.22599
G1 X101.563 Y147.188 E51.32121
G1 X99.667 Y146.393 E51.56792
G1 X97.864 Y145.517 E51.80846
G1 X96.196 Y144.595 E52.03717
G1 X95.874 Y144.394 E52.08272
G1 X94.714 Y143.505 E52.25809
G1 X93.675 Y142.223 E52.45611
G1 X92.923 Y140.659 E52.66436
G1 X92.653 Y139.343 E52.82557
G1 X92.564 Y138.948 E52.87416
G1 X92.612 Y137.659 E53.02895
G1 X92.629 Y137.266 E53.07615
G1 X92.927 Y136.114 E53.21894
G1 X93.168 Y135.326 E53.31782
G1 X93.252 Y134.859 E53.37476
G1 X93.288 Y134.310 E53.44078
G1 X93.257 Y133.813 E53.50054
G1 X93.151 Y133.238 E53.57070
G1 X92.987 Y132.731 E53.63465
G1 X92.777 Y132.285 E53.69380
G1 X92.467 Y131.787 E53.76420
G1 X92.156 Y131.410 E53.82284
G1 X91.736 Y131.008 E53.89261
G1 X91.300 Y130.691 E53.95730
G1 X90.875 Y130.455 E54.01563
G1 X90.357 Y130.244 E54.08275
G1 X89.810 Y130.098 E54.15069
G1 X89.320 Y130.035 E54.20997
G1 X88.728 Y130.028 E54.28102
G1 X87.923 Y130.127 E54.37834
G1 X86.943 Y130.189 E54.49618
G1 X86.535 Y130.223 E54.54531
G1 X85.042 Y129.961 E54.72721
G1 X84.592 Y129.825 E54.78362
G1 X83.302 Y129.267 E54.95228
G1 X82.068 Y128.368 E55.13549
G1 X81.134 Y127.343 E55.30190
G1 X80.558 Y126.437 E55.43073
G1 X80.173 Y125.591 E55.54227
G1 X79.482 Y123.572 E55.79834
G1 X78.921 Y121.581 E56.04657
G1 X78.472 Y119.563 E56.29465
G1 X78.135 Y117.522 E56.54288
G1 X77.924 Y115.563 E56.77932
G1 X77.806 Y113.406 E57.03855
G1 X77.812 Y111.332 E57.28743
G1 X77.935 Y109.267 E57.53567
G1 X78.171 Y107.212 E57.78389
G1 X78.522 Y105.174 E58.03205
G1 X78.962 Y103.256 E58.26819
G1 X79.559 Y101.175 E58.52798
G1 X80.244 Y99.220 E58.77657
G1 X80.997 Y97.400 E59.01292
G1 X81.931 Y95.448 E59.27260
G1 X82.884 Y93.720 E59.50940
G1 X84.027 Y91.883 E59.76903
G1 X85.223 Y90.191 E60.01767
G1 X86.508 Y88.571 E60.26580
G1 X87.882 Y87.025 E60.51400
G10
G0 F9000 X90.649 Y89.632
;TYPE:WALL-INNER
G11
G1 F1200 X91.895 Y88.378 E60.72613
G1 X93.273 Y87.128 E60.94939
G1 X94.713 Y85.964 E61.17159
G1 X96.226 Y84.873 E61.39543
G1 X97.872 Y83.819 E61.62997
G1 X99.397 Y82.965 E61.83971
G1 X101.065 Y82.143 E62.06286
G1 X102.839 Y81.388 E62.29421
G1 X103.593 Y81.187 E62.38785
G1 X104.444 Y81.169 E62.49000
G1 X105.228 Y81.343 E62.58637
G1 X105.863 Y81.644 E62.67069
G1 X106.367 Y82.017 E62.74594
G1 X106.715 Y82.381 E62.80637
G1 X107.025 Y82.819 E62.87076
G1 X107.558 Y83.610 E62.98522
G1 X108.185 Y84.336 E63.10033
G1 X108.894 Y84.983 E63.21551
G1 X109.673 Y85.541 E63.33050
G1 X110.513 Y86.004 E63.44560
G1 X111.401 Y86.364 E63.56058
G1 X112.327 Y86.617 E63.67577
G1 X113.276 Y86.759 E63.79092
G1 X114.234 Y86.787 E63.90593
G1 X115.189 Y86.701 E64.02099
G1 X116.128 Y86.505 E64.13610
G1 X117.037 Y86.198 E64.25123
G1 X117.902 Y85.785 E64.36626
G1 X118.713 Y85.275 E64.48122
G1 X119.458 Y84.671 E64.59631
G1 X120.127 Y83.983 E64.71147
G1 X120.709 Y83.221 E64.82653
G1 X121.181 Y82.425 E64.93758
G1 X121.389 Y82.070 E64.98695
G1 X121.622 Y81.760 E65.03349
G1 X121.992 Y81.385 E65.09671
G1 X122.412 Y81.076 E65.15928
G1 X122.998 Y80.781 E65.23800
G1 X123.652 Y80.602 E65.31937
G1 X124.445 Y80.562 E65.41465
G1 X125.294 Y80.724 E65.51837
G1 X127.060 Y81.352 E65.74329
G1 X128.825 Y82.095 E65.97309
G1 X130.545 Y82.937 E66.20290
G1 X132.205 Y83.872 E66.43152
G1 X133.728 Y84.847 E66.64852
G1 X135.286 Y85.970 E66.87899
G1 X136.847 Y87.237 E67.12025
G1 X138.236 Y88.510 E67.34634
G1 X139.525 Y89.833 E67.56799
G1 X140.826 Y91.325 E67.80554
G1 X142.004 Y92.848 E68.03659
G1 X143.025 Y94.339 E68.25344
G1 X144.012 Y95.965 E68.48169
G1 X144.962 Y97.748 E68.72413
G1 X145.754 Y99.481 E68.95278
G1 X146.412 Y101.171 E69.17041
G1 X147.013 Y103.002 E69.40166
G1 X147.524 Y104.921 E69.63996
G1 X147.903 Y106.792 E69.86904
G1 X148.175 Y108.682 E70.09818
G1 X148.330 Y110.489 E70.31582
G1 X148.394 Y112.496 E70.55678
G1 X148.328 Y114.596 E70.80890
G1 X148.136 Y116.647 E71.05610
G1 X147.822 Y118.636 E71.29774
G1 X147.378 Y120.662 E71.54663
G1 X146.799 Y122.683 E71.79890
G1 X146.076 Y124.719 E72.05817
G1 X145.677 Y125.458 E72.15895
G1 X145.130 Y126.061 E72.25665
G1 X144.465 Y126.514 E72.35320
G1 X143.691 Y126.801 E72.45226
G1 X142.905 Y126.895 E72.54725
G1 X142.303 Y126.842 E72.61977
G1 X141.732 Y126.689 E72.69071
G1 X140.877 Y126.436 E72.79771
G1 X139.939 Y126.270 E72.91202
G1 X139.026 Y126.217 E73.02176
G1 X138.941 Y126.212 E73.03198
